src/img/disease-prevention.svg

<svg id="_x33_0" enable-background="new 0 0 64 64" height="512" viewBox="0 0 64 64" width="512" xmlns="http://www.w3.org/2000/svg"><g><circle cx="44" cy="16" r="1"/><circle cx="50" cy="16" r="1"/><path d="m45.5 8.5h1.999v5h-1.999z" transform="matrix(.8 -.6 .6 .8 2.7 30.1)"/><path d="m50.5 8.5h1.999v5h-1.999z" transform="matrix(.8 -.6 .6 .8 3.7 33.1)"/><path d="m51.854 31.297-.604-2.415c2.94-.534 5.241-2.907 5.669-5.882h.081c2.206 0 4-1.794 4-4 0-.791-.238-1.524-.635-2.145.415-1.64.635-3.325.635-5.017 0-5.976-4.862-10.838-10.838-10.838h-6.324c-5.976 0-10.838 4.862-10.838 10.838 0 1.693.22 3.377.635 5.017-.397.621-.635 1.354-.635 2.145 0 2.206 1.794 4 4 4h.08c.429 2.975 2.729 5.348 5.669 5.882l-.604 2.415c-4.645 2.251-8.151 6.208-9.902 10.907-.862-2.776-2.436-5.282-4.55-7.27l.599-.257c2.86-1.226 4.708-4.028 4.708-7.139 0-.41-.033-.823-.098-1.228l-2.567-16.049c-.858-5.365-5.427-9.261-10.862-9.261h-4.945c-5.436 0-10.005 3.896-10.863 9.262l-2.567 16.049c-.065.404-.098.817-.098 1.227 0 3.111 1.848 5.913 4.708 7.139l.599.257c-3.319 3.119-5.307 7.52-5.307 12.218v15.848h62v-13.917c0-7.568-4.358-14.497-11.146-17.786zm.684 2.664-1.031 2.577-2.718-1.631 2.317-1.737c.492.243.97.506 1.432.791zm-1.538-7.062c-.323.066-.658.101-1 .101h-6c-.342 0-.677-.035-1-.101v-5.899h8zm-1.78 2.101.649 2.599-2.869 2.151-2.869-2.152.649-2.598zm3.78-3.026v-5.56l2-2v3.586c0 1.627-.793 3.061-2 3.974zm4-4.974v-4c1.103 0 2 .897 2 2s-.897 2-2 2zm-13.162-18h6.324c4.873 0 8.838 3.965 8.838 8.838 0 1.186-.12 2.368-.346 3.53-.506-.231-1.063-.368-1.654-.368v-3h-2v3.586l-3.414 3.414h-9.172l-3.414-3.414v-.586c0-2.206 1.794-4 4-4v-2c-3.309 0-6 2.691-6 6-.591 0-1.148.137-1.654.368-.226-1.163-.346-2.344-.346-3.53 0-4.873 3.965-8.838 8.838-8.838zm-8.838 16c0-1.103.897-2 2-2v4c-1.103 0-2-.897-2-2zm4 3v-3.586l2 2v5.56c-1.207-.913-2-2.347-2-3.974zm3.894 11.17 2.317 1.737-2.718 1.631-1.031-2.577c.462-.285.94-.548 1.432-.791zm-3.116 1.969 1.729 4.323 5.493-3.296 5.492 3.296 1.729-4.323c4.209 3.323 6.779 8.441 6.779 13.944v1.917h-4v-3.586c0-.645.251-1.251.707-1.707l-1.414-1.414c-.834.834-1.293 1.942-1.293 3.121v13.586h-16v-13.586c0-1.179-.459-2.287-1.293-3.121l-1.414 1.414c.456.456.707 1.063.707 1.707v3.586h-4v-1.917c0-5.503 2.57-10.621 6.778-13.944zm-29.345 22.723c.095-.284.178-.572.25-.862h12.636c.071.29.154.578.25.862l1.044 3.138h-15.226zm15.031-.633c-.308-.922-.464-1.884-.464-2.859 0-1.151.236-2.299.667-3.37h5.333v10h-4.28zm7.536-4.229h4v8h-4zm-26-19.945v-8.055h-2v6.9c-1.247-1.077-2-2.655-2-4.361 0-.305.024-.611.072-.911l2.568-16.05c.703-4.391 4.44-7.578 8.887-7.578h4.945c4.447 0 8.185 3.187 8.888 7.578l2.567 16.049c.048.3.072.606.072.911 0 1.706-.753 3.285-2 4.361v-6.899h-2v8.055l-1.047.449c-.309-.221-.627-.432-.953-.632v-3.872h-2v2.786c-.745-.4-1.292-1.075-1.498-1.903l-.365-1.459c3.419-1.276 5.864-4.566 5.864-8.424v-2.611c0-2.454-1.757-4.528-4.179-4.932l-.996-.166c-1.769-1.189-2.825-3.149-2.825-5.291h-2c0 1.698.514 3.305 1.424 4.661-2.016-.635-3.424-2.49-3.424-4.661h-2c0 .755.12 1.484.345 2.168-3.656.754-6.345 3.955-6.345 7.832v3c0 3.858 2.445 7.148 5.863 8.425l-.366 1.46c-.205.827-.753 1.502-1.497 1.902v-2.787h-2v3.872c-.326.2-.643.412-.953.632zm15.493-18.625c.941.157 1.709.738 2.137 1.526l-3.044 3.044h-9.172l-3.265-3.265c.541-2.46 2.605-4.393 5.148-4.694 1.032 1.433 2.608 2.457 4.47 2.768zm-1.493 11.885c-.911.434-1.926.685-3 .685h-2c-1.074 0-2.089-.251-3-.685v-5.315h8zm2-5.901 2-2v1.586c0 1.902-.765 3.626-2 4.889zm-14-2 2 2v4.475c-1.235-1.263-2-2.987-2-4.889zm5.438 11.956.365-1.459c.392.052.79.089 1.197.089h2c.407 0 .804-.037 1.197-.089l.365 1.458c.216.864.653 1.632 1.252 2.252l-.404 1.621c-.113.446-.512.758-.972.758h-4.877c-.46 0-.858-.312-.97-.757l-.405-1.622c.599-.62 1.037-1.388 1.252-2.251zm-3.013 3.455.226.904c.334 1.336 1.532 2.271 2.911 2.271h4.877c1.379 0 2.576-.935 2.91-2.272l.226-.903c5.124 2.439 8.425 7.638 8.425 13.327v1.848h-4.47c.305-.884.47-1.818.47-2.752 0-1.669-.489-3.285-1.415-4.673l-.753-1.13-1.664 1.109.753 1.13c.706 1.059 1.079 2.292 1.079 3.564 0 .992-.234 1.985-.68 2.874l-.154.311c-.763 1.525-1.166 3.233-1.166 4.937 0 .211.013.42.025.63h-12.05c.012-.21.025-.419.025-.63 0-1.704-.403-3.412-1.165-4.936l-.156-.314c-.445-.887-.679-1.88-.679-2.872 0-1.272.373-2.505 1.079-3.563l.753-1.13-1.664-1.109-.753 1.13c-.926 1.387-1.415 3.003-1.415 4.672 0 .935.165 1.869.47 2.752h-4.47v-1.848c0-5.689 3.301-10.888 8.425-13.327zm-8.425 17.175h5.334c.429 1.07.666 2.219.666 3.37 0 .975-.156 1.937-.464 2.859l-1.256 3.771h-4.28zm54 10v-8h4v8z"/><circle cx="14" cy="16" r="1"/><circle cx="20" cy="16" r="1"/></g></svg>

<svg xmlns="http://www.w3.org/2000/svg" width="512" height="512" viewBox="0 0 64 64"><circle cx="44" cy="16" r="1"/><circle cx="50" cy="16" r="1"/><path d="M44.2 9.6l1.6-1.2 3 4-1.6 1.2zm5 0l1.6-1.2 3 4-1.6 1.2z"/><path d="M51.854 31.297l-.604-2.415A7.008 7.008 0 0 0 56.919 23H57c2.206 0 4-1.794 4-4 0-.791-.238-1.524-.635-2.145A20.46 20.46 0 0 0 61 11.838C61 5.862 56.138 1 50.162 1h-6.324C37.862 1 33 5.862 33 11.838c0 1.693.22 3.377.635 5.017A3.968 3.968 0 0 0 33 19c0 2.206 1.794 4 4 4h.08a7.009 7.009 0 0 0 5.669 5.882l-.604 2.415a19.805 19.805 0 0 0-9.902 10.907 16.851 16.851 0 0 0-4.55-7.27l.599-.257a7.759 7.759 0 0 0 4.61-8.367l-2.567-16.049A10.953 10.953 0 0 0 19.473 1h-4.945a10.953 10.953 0 0 0-10.863 9.262L1.098 26.311a7.759 7.759 0 0 0 4.61 8.366l.599.257C2.988 38.053 1 42.454 1 47.152V63h62V49.083a19.807 19.807 0 0 0-11.146-17.786zm.684 2.664l-1.031 2.577-2.718-1.631 2.317-1.737c.492.243.97.506 1.432.791zM51 26.899A4.995 4.995 0 0 1 50 27h-6c-.342 0-.677-.035-1-.101V21h8zM49.22 29l.649 2.599L47 33.75l-2.869-2.152L44.78 29zM53 25.974v-5.56l2-2V22c0 1.627-.793 3.061-2 3.974zM57 21v-4c1.103 0 2 .897 2 2s-.897 2-2 2zM43.838 3h6.324C55.035 3 59 6.965 59 11.838c0 1.186-.12 2.368-.346 3.53A3.968 3.968 0 0 0 57 15v-3h-2v3.586L51.586 19h-9.172L39 15.586V15c0-2.206 1.794-4 4-4V9c-3.309 0-6 2.691-6 6-.591 0-1.148.137-1.654.368a18.503 18.503 0 0 1-.346-3.53C35 6.965 38.965 3 43.838 3zM35 19c0-1.103.897-2 2-2v4c-1.103 0-2-.897-2-2zm4 3v-3.586l2 2v5.56c-1.207-.913-2-2.347-2-3.974zm3.894 11.17l2.317 1.737-2.718 1.631-1.031-2.577c.462-.285.94-.548 1.432-.791zm-3.116 1.969l1.729 4.323L47 36.166l5.492 3.296 1.729-4.323C58.43 38.462 61 43.58 61 49.083V51h-4v-3.586c0-.645.251-1.251.707-1.707l-1.414-1.414A4.384 4.384 0 0 0 55 47.414V61H39V47.414a4.384 4.384 0 0 0-1.293-3.121l-1.414 1.414A2.4 2.4 0 0 1 37 47.414V51h-4v-1.917c0-5.503 2.57-10.621 6.778-13.944zM10.433 57.862c.095-.284.178-.572.25-.862h12.636c.071.29.154.578.25.862L24.613 61H9.387zm15.031-.633A9.007 9.007 0 0 1 25 54.37c0-1.151.236-2.299.667-3.37H31v10h-4.28zM33 53h4v8h-4zM7 33.055V25H5v6.9a5.759 5.759 0 0 1-1.928-5.272l2.568-16.05A8.961 8.961 0 0 1 14.527 3h4.945a8.962 8.962 0 0 1 8.888 7.578l2.567 16.049a5.757 5.757 0 0 1-1.928 5.272V25h-2v8.055l-1.047.449a16.21 16.21 0 0 0-.953-.632V29h-2v2.786a2.97 2.97 0 0 1-1.498-1.903l-.365-1.459C24.555 27.148 27 23.858 27 20v-2.611a4.985 4.985 0 0 0-4.179-4.932l-.996-.166A6.345 6.345 0 0 1 19 7h-2c0 1.698.514 3.305 1.424 4.661A4.875 4.875 0 0 1 15 7h-2c0 .755.12 1.484.345 2.168C9.689 9.922 7 13.123 7 17v3c0 3.858 2.445 7.148 5.863 8.425l-.366 1.46A2.969 2.969 0 0 1 11 31.787V29H9v3.872c-.326.2-.643.412-.953.632zM22.493 14.43a2.984 2.984 0 0 1 2.137 1.526L21.586 19h-9.172l-3.265-3.265c.541-2.46 2.605-4.393 5.148-4.694a6.884 6.884 0 0 0 4.47 2.768zM21 26.315A6.955 6.955 0 0 1 18 27h-2a6.955 6.955 0 0 1-3-.685V21h8zm2-5.901l2-2V20a6.973 6.973 0 0 1-2 4.889zm-14-2l2 2v4.475A6.973 6.973 0 0 1 9 20zm5.438 11.956l.365-1.459c.392.052.79.089 1.197.089h2c.407 0 .804-.037 1.197-.089l.365 1.458a4.967 4.967 0 0 0 1.252 2.252l-.404 1.621a1.002 1.002 0 0 1-.972.758h-4.877a1 1 0 0 1-.97-.757l-.405-1.622a4.96 4.96 0 0 0 1.252-2.251zm-3.013 3.455l.226.904A2.997 2.997 0 0 0 14.562 37h4.877a2.996 2.996 0 0 0 2.91-2.272l.226-.903A14.794 14.794 0 0 1 31 47.152V49h-4.47c.305-.884.47-1.818.47-2.752a8.393 8.393 0 0 0-1.415-4.673l-.753-1.13-1.664 1.109.753 1.13A6.406 6.406 0 0 1 25 46.248c0 .992-.234 1.985-.68 2.874l-.154.311A11.092 11.092 0 0 0 23 54.37c0 .211.013.42.025.63h-12.05c.012-.21.025-.419.025-.63 0-1.704-.403-3.412-1.165-4.936l-.156-.314A6.435 6.435 0 0 1 9 46.248a6.4 6.4 0 0 1 1.079-3.563l.753-1.13-1.664-1.109-.753 1.13A8.387 8.387 0 0 0 7 46.248c0 .935.165 1.869.47 2.752H3v-1.848a14.794 14.794 0 0 1 8.425-13.327zM3 51h5.334A9.092 9.092 0 0 1 9 54.37c0 .975-.156 1.937-.464 2.859L7.28 61H3zm54 10v-8h4v8z"/><circle cx="14" cy="16" r="1"/><circle cx="20" cy="16" r="1"/></svg>
